X: 31075
T: Paddy Fahey's
R: jig
M: 6/8
K: Dmajor
|:DFA d2 e|d^cA ~G3|AFD ~=c3|ed=c (3B=cdB|
DFA dfe|d^cA ~G3|AdB ^cAG|1 ~E3 DFE:|2 ~E3 D2 A||
|:d2 e fed|c2 A ABA|=c2 d ed=c|B2 G GFG|
A(3B^cd fed|^cAB AFG|AdB ^cAG|1 ED^C DFA:|2 ED^C DFE||

